T: Rosc Catha Na Mumhan
M: 4/4
L: 1/8
K: Edor
E2B2 B>cdB|A>BAF D2 EF|G2 FE BAGF|E2 E>F E2 GF|
E2B2 B>cdB|A>BAF D2 EF|G2 FE BAGF|E2 E>F E4|
B e2 e e2 f2|e2d2B2A2|B e3 e3f|e2d2B3c|d2 d>d d3B|
A>BAF D2 EF|G2 FE BAGF|E2 E>F E4|
